svg/device/radar_2_line.svg

<?xml version="1.0" encoding="UTF-8"?>
<svg width="24px" height="24px" viewBox="0 0 24 24" version="1.1" xmlns="http://www.w3.org/2000/svg" xmlns:xlink="http://www.w3.org/1999/xlink">
    <title>radar_2_line</title>
    <g id="页面-1" stroke="none" stroke-width="1" fill="none" fill-rule="evenodd">
        <g id="Device" transform="translate(-240.000000, -192.000000)" fill-rule="nonzero">
            <g id="radar_2_line" transform="translate(240.000000, 192.000000)">
                 <path d="M24,0 L24,24 L0,24 L0,0 L24,0 Z M12.5934901,23.257841 L12.5819402,23.2595131 L12.5108777,23.2950439 L12.4918791,23.2987469 L12.4918791,23.2987469 L12.4767152,23.2950439 L12.4056548,23.2595131 C12.3958229,23.2563662 12.3870493,23.2590235 12.3821421,23.2649074 L12.3780323,23.275831 L12.360941,23.7031097 L12.3658947,23.7234994 L12.3769048,23.7357139 L12.4804777,23.8096931 L12.4953491,23.8136134 L12.4953491,23.8136134 L12.5071152,23.8096931 L12.6106902,23.7357139 L12.6232938,23.7196733 L12.6232938,23.7196733 L12.6266527,23.7031097 L12.609561,23.275831 C12.6075724,23.2657013 12.6010112,23.2592993 12.5934901,23.257841 L12.5934901,23.257841 Z M12.8583906,23.1452862 L12.8445485,23.1473072 L12.6598443,23.2396597 L12.6498822,23.2499052 L12.6498822,23.2499052 L12.6471943,23.2611114 L12.6650943,23.6906389 L12.6699349,23.7034178 L12.6699349,23.7034178 L12.678386,23.7104931 L12.8793402,23.8032389 C12.8914285,23.8068999 12.9022333,23.8029875 12.9078286,23.7952264 L12.9118235,23.7811639 L12.8776777,23.1665331 C12.8752882,23.1545897 12.8674102,23.1470016 12.8583906,23.1452862 L12.8583906,23.1452862 Z M12.1430473,23.1473072 C12.1332178,23.1423925 12.1221763,23.1452606 12.1156365,23.1525954 L12.1099173,23.1665331 L12.0757714,23.7811639 C12.0751323,23.7926639 12.0828099,23.8018602 12.0926481,23.8045676 L12.108256,23.8032389 L12.3092106,23.7104931 L12.3186497,23.7024347 L12.3186497,23.7024347 L12.3225043,23.6906389 L12.340401,23.2611114 L12.337245,23.2485176 L12.337245,23.2485176 L12.3277531,23.2396597 L12.1430473,23.1473072 Z" id="MingCute" fill-rule="nonzero"></path>
                <path d="M5.26864,4.02583 C5.82629647,3.39789588 6.73176747,3.39831332 7.31339405,3.8775654 L7.41849,3.973 L12.2656,8.82017 L12.353,8.73283 C12.7435,8.34231 13.3766,8.34231 13.7672,8.73283 C14.1276615,9.09331923 14.1553893,9.66054645 13.8503834,10.0528022 L13.7672,10.147 L13.6798,10.2344 L18.0269,14.5815 C18.5991,15.1537 18.6413,16.1389 17.9741,16.7314 C16.7417563,17.8257437 15.2053109,18.5875094 13.508218,18.8740669 L13.1667,18.925 L14.1476,20.2434 C14.6640261,20.9374522 14.2126352,21.9109251 13.3808307,21.994263 L13.2651,22 L6.68511,22 C5.94375632,22 5.42702169,21.2872898 5.62744186,20.5968424 L5.66757,20.4821 L6.92071,17.4307 C4.55329,15.8094 3,13.0861 3,9.99997 C3,7.70816 3.85794,5.61431 5.26864,4.02583 Z M8.69545,18.3739 L8.02766,20 L11.4737,20 L10.6555,18.9002 C10.11042,18.8186 9.5813528,18.68804 9.07287568,18.5132304 L8.69545,18.3739 Z M6.40697,5.78991 C5.5232,6.96179 5,8.41884 5,9.99997 C5,13.866 8.13401,17 12,17 C13.5811,17 15.0381,16.4768 16.21,15.593 L12.2656,11.6486 L10.7071,13.2071 C10.3166,13.5976 9.68342,13.5976 9.29289,13.2071 C8.90237,12.8166 8.90237,12.1834 9.29289,11.7929 L10.8514,10.2344 L6.40697,5.78991 Z M14.1077,5.05316 C14.8356,5.1815 15.5042,5.537 16.0177,6.06868 C16.5311,6.60036 16.863,7.28094 16.9659,8.01288 C17.0428,8.55979 16.6617,9.06546 16.1148,9.14232 C15.6069643,9.21369 15.1346531,8.89022944 15.0082806,8.40576989 L14.9854,8.29122 C14.9413,7.97754 14.799,7.68586 14.579,7.458 C14.3955833,7.26810833 14.1660556,7.13066111 13.9140856,7.05828565 L13.7604,7.02277 C13.2165,6.92687 12.8534,6.40821 12.9493,5.86432 C13.0452,5.32042 13.5638,4.95725 14.1077,5.05316 Z M14,2 C14.7879,2 15.5681,2.15519 16.2961,2.45672 C17.0241,2.75825 17.6855,3.20021 18.2426,3.75736 C18.7998,4.31451 19.2417,4.97595 19.5433,5.7039 C19.8448,6.43185 20,7.21207 20,8 C20,8.55228 19.5523,9 19,9 C18.48715,9 18.0644908,8.61395571 18.0067275,8.11662025 L18,8 C18,7.47471 17.8965,6.95457 17.6955,6.46927 C17.4945,5.98396 17.1999,5.54301 16.8284,5.17157 C16.457,4.80014 16.016,4.5055 15.5307,4.30448 C15.0454,4.10346 14.5253,4 14,4 C13.4477,4 13,3.55228 13,3 C13,2.44772 13.4477,2 14,2 Z" id="形状" fill="#09244B"></path>
            </g>
        </g>
    </g>
</svg>

<svg xmlns="http://www.w3.org/2000/svg" width="24" height="24"><g fill="none" fill-rule="nonzero"><path d="M24 0v24H0V0h24ZM12.593 23.258l-.011.002-.071.035-.02.004-.014-.004-.071-.035c-.01-.004-.019-.001-.024.005l-.004.01-.017.428.005.02.01.013.104.074.015.004.012-.004.104-.074.012-.016.004-.017-.017-.427c-.002-.01-.009-.017-.017-.018Zm.265-.113-.013.002-.185.093-.01.01-.003.011.018.43.005.012.008.007.201.093c.012.004.023 0 .029-.008l.004-.014-.034-.614c-.003-.012-.01-.02-.02-.022Zm-.715.002a.023.023 0 0 0-.027.006l-.006.014-.034.614c0 .012.007.02.017.024l.015-.002.201-.093.01-.008.004-.011.017-.43-.003-.012-.01-.01-.184-.092Z"/><path fill="#09244B" d="M5.269 4.026c.557-.628 1.463-.628 2.044-.148l.105.095 4.848 4.847.087-.087a1 1 0 0 1 1.497 1.32l-.083.094-.087.087 4.347 4.348c.572.572.614 1.557-.053 2.15a8.974 8.974 0 0 1-4.466 2.142l-.341.051.98 1.318a1.1 1.1 0 0 1-.766 1.751l-.116.006h-6.58a1.1 1.1 0 0 1-1.058-1.403l.04-.115 1.254-3.051A8.99 8.99 0 0 1 3 10a8.97 8.97 0 0 1 2.269-5.974Zm3.426 14.348L8.028 20h3.446l-.819-1.1a8.935 8.935 0 0 1-1.582-.387l-.378-.14ZM6.407 5.79a7 7 0 0 0 9.803 9.803l-3.944-3.944-1.559 1.558a1 1 0 0 1-1.414-1.414l1.558-1.559L6.407 5.79Zm7.7-.737a3.5 3.5 0 0 1 2.859 2.96 1 1 0 0 1-1.958.393l-.023-.115a1.5 1.5 0 0 0-1.07-1.233l-.155-.035a1 1 0 0 1 .348-1.97ZM14 2a6 6 0 0 1 6 6 1 1 0 0 1-1.993.117L18 8a4 4 0 0 0-4-4 1 1 0 1 1 0-2Z"/></g></svg>
